X:143
T:Buskin
C:John Young, 1721
R:Reel
S:Colin Hume's website,  colinhume.com  - chords can also be printed below the stave.
Q:1/2=112
M:2/2
L:1/8
K:D
P:A
|: A2 | "D"d2AG F2A2 | "G"BAGF "A7"E2G2 | "D"AGFE "Bm"D2F2 | "E7"EDCB, "A"A,2A2 |\
"D"d2AG F2A2 | "A7"e2cB A2fg | "D"afd2 "A7"A2c2 | "D"d6 :|
P:B
|: f2 | "D"f2df a2fd | "Bm"f2df "A"e2cA | "D/F#"d2cd "G"B2GB | "E7/G#"e2Be "A"c2A2 |\
"Em"gaga b2ag | "D"fefg a2gf | "Em"e2de "A7"A2c2 | "D"d6 :|

